static/images/mobile/copyright/wikipedia-wordmark-cy.svg

<?xml version="1.0" encoding="UTF-8"?>
<svg xmlns="http://www.w3.org/2000/svg" width="119" height="18" viewBox="0 0 119 18">
	<title>
		cy-wordmark
	</title>
	<g id="Page-1" fill="none" fill-rule="evenodd" stroke="none" stroke-width="1">
		<path id="cy-wordmark" fill="#000" fill-rule="nonzero" d="M39.482992,5.01691444 C41.538372,5.01691444 42.694528,5.43225444 43.670833,5.43225444 C43.696526,6.60038444 43.824987,7.69064444 43.979141,8.75494444 L43.979141,8.75494444 L43.311141,8.83284444 C43.002835,7.01575444 41.872372,5.76974444 39.637146,5.76974444 C37.710227,5.76974444 35.706228,6.78213444 35.706228,11.1431544 C35.706228,13.7130444 36.631153,16.5944444 39.739916,16.5944444 C41.461295,16.5944444 42.360528,16.0752744 43.542372,14.6735144 L43.542372,14.6735144 L44.056218,15.0888544 C42.848681,16.7242444 41.61545,17.4770444 39.611454,17.4770444 C35.654848,17.4770444 33.471,14.3879344 33.471,11.4027144 C33.471,7.61277444 36.091615,5.01691444 39.482992,5.01691444 Z M15.215,0.00444444444 C16.4934828,-0.0045210728 19.200327,0.00258950984 19.746682,0.00415660976 L19.844,0.00444444444 L19.901,0.0574444444 L19.901,0.553444444 C19.901,0.690444444 19.824,0.758444444 19.672,0.758444444 C18.926,0.793444444 18.773,0.867444444 18.5,1.26044444 C18.351,1.47544444 18.057,1.93644444 17.752,2.45344444 L17.752,2.45344444 L15.134,7.34944444 C15.134,7.34944444 15.1084258,7.40287016 15.0609365,7.50188383 L18.26,14.0494444 L18.454,14.1024444 L23.494,2.14144444 C23.669,1.65944444 23.642,1.31744444 23.417,1.11644444 C23.191,0.920444444 23.032,0.804444444 22.448,0.780444444 L21.975,0.756444444 C21.917,0.756444444 21.862,0.735444444 21.809,0.696444444 C21.757,0.659444444 21.73,0.610444444 21.73,0.551444444 L21.73,0.0534444444 L21.802,0.00244444444 L27.496,0.00244444444 L27.496,0.00244444444 L27.554,0.0534444444 L27.554,0.551444444 C27.554,0.686444444 27.477,0.754444444 27.325,0.754444444 C26.579,0.787444444 26.026,0.949444444 25.668,1.23844444 C25.309,1.52944444 25.029,1.93044444 24.828,2.45144444 C24.828,2.45144444 20.193,13.0604444 18.607,16.5864444 C18,17.7424444 17.403,17.6364444 16.878,16.5534444 C16.2206472,15.1996177 14.8556852,12.2137926 13.8529336,10.0063434 C12.7808262,12.218008 11.3122659,15.2166478 10.584,16.5674444 C9.876,17.7984444 9.293,17.6374444 8.829,16.5994444 C7.218,12.7984444 3.91,6.12444444 2.353,2.38444444 C2.065,1.69544444 1.848,1.25344444 1.643,1.07844444 C1.437,0.905444444 1.009,0.801444444 0.358,0.766444444 C0.119,0.740444444 8.29558644e-13,0.682444444 8.29558644e-13,0.588444444 L8.29558644e-13,0.588444444 L8.29558644e-13,0.0674444444 L0.058,0.0164444444 C0.962117647,0.0113267974 4.8271955,0.0149392541 5.94443039,0.0161124172 L6.248,0.0164444444 L6.306,0.0674444444 L6.306,0.563444444 C6.306,0.700444444 6.219,0.766444444 6.048,0.766444444 L6.048,0.766444444 L5.402,0.793444444 C4.848,0.816444444 4.571,0.982444444 4.571,1.28944444 C4.571,1.43244444 4.629,1.66444444 4.758,1.97744444 C5.998,4.99844444 10.281,14.0294444 10.281,14.0294444 L10.281,14.0294444 L10.438,14.0704444 L13.1988388,8.56383302 C12.861268,7.81805963 12.646,7.34044444 12.646,7.34044444 L10.748,3.61044444 C10.748,3.61044444 10.381,2.86444444 10.256,2.61644444 C9.422,0.963444444 9.44,0.875444444 8.597,0.764444444 C8.361,0.733444444 8.239,0.703444444 8.239,0.586444444 L8.239,0.0634444444 L8.31,0.0124444444 L8.63792296,0.0120705185 C10.2698044,0.0104444444 13.222,0.0104444444 13.222,0.0104444444 L13.352,0.0534444444 L13.352,0.574444444 C13.352,0.693444444 13.267,0.754444444 13.094,0.754444444 L12.738,0.805444444 C11.838,0.875444444 11.985,1.24344444 12.583,2.43444444 L14.404,6.161 L16.418,2.14344444 C16.7309286,1.46094444 16.6937857,1.25354138 16.5755918,1.091283 L16.547,1.05444444 C16.467,0.958444444 16.199,0.805444444 15.616,0.781444444 L15.616,0.781444444 L15.387,0.756444444 C15.329,0.756444444 15.275,0.736444444 15.222,0.697444444 C15.17,0.660444444 15.144,0.612444444 15.144,0.551444444 L15.144,0.551444444 L15.144,0.0554444444 Z M68.9732145,5.2671319 L72.909,5.26744444 C73.689,5.26744444 75.536,5.21544444 75.536,5.21544444 L75.589,5.26744444 C75.614,6.38544444 75.796,7.40144444 75.979,8.38844444 L75.33,8.49244444 C75.045,7.52944444 74.551,6.15244444 72.887,6.15244444 L70.807,6.15244444 C70.313,6.15244444 70.053,6.33444444 70.053,6.77544444 L70.053,10.5464444 L72.002,10.5464444 C72.731,10.5464444 72.912,10.2344444 73.017,9.71444444 L73.172,9.16844444 C73.172,9.09044444 73.225,9.03744444 73.328,9.03744444 L73.769,9.03744444 C73.822,9.03744444 73.822,9.06444444 73.822,9.11544444 C73.769,9.68744444 73.666,10.4164444 73.666,11.0404444 C73.666,11.6894444 73.77,12.2364444 73.822,12.8344444 L73.769,12.8874444 L73.328,12.8874444 C73.199,12.8874444 73.145,12.8344444 73.145,12.7564444 L73.015,12.1854444 C72.911,11.6644444 72.677,11.3784444 71.999,11.3784444 L70.051,11.3784444 L70.051,15.3574444 C70.051,15.8504444 70.335,16.3444444 70.805,16.3444444 L73.275,16.3444444 C74.601,16.3444444 75.33,15.5124444 75.641,14.1594444 L76.29,14.2374444 L75.769,17.2264444 L75.717,17.2784444 C75.717,17.2784444 74.183,17.2264444 73.403,17.2264444 L68.853,17.2294444 C68.073,17.2294444 66.28,17.2824444 66.28,17.2824444 L66.253,17.2294444 L66.253,16.6574444 C66.253,16.6064444 66.28,16.5284444 66.409,16.5284444 L67.008,16.4754444 C67.815,16.3974444 68.049,15.8774444 68.049,15.3584444 L68.049,6.77844444 C68.049,6.17844444 67.736,6.07544444 67.008,6.02444444 L66.409,5.97044444 C66.279,5.95044444 66.2573333,5.91030556 66.2537222,5.88185648 L66.253,5.26744444 L66.28,5.21544444 C66.28,5.21544444 68.1269153,5.26282461 68.9732145,5.2671319 Z M49.2196655,5.2671319 L49.337,5.26744444 C50.039,5.26744444 52.041,5.21544444 52.041,5.21544444 L52.067,5.26744444 L52.067,5.83944444 C52.067,5.91744444 52.015,5.96944444 51.911,5.96944444 L51.365,6.02244444 C50.559,6.09944444 50.273,6.30844444 50.273,6.82944444 L50.273,15.4874444 C50.273,16.0594444 50.533,16.3974444 51.365,16.4754444 L51.911,16.5284444 C51.989,16.5284444 52.067,16.5794444 52.067,16.6834444 L52.067,17.2294444 L52.041,17.2824444 C52.041,17.2824444 50.2405537,17.2341531 49.3758657,17.229763 L49.259,17.2294444 C48.531,17.2294444 46.503,17.2824444 46.503,17.2824444 L46.451,17.2294444 L46.451,16.6834444 C46.451,16.5794444 46.529,16.5284444 46.633,16.5284444 L47.153,16.4754444 C48.011,16.3974444 48.271,15.9814444 48.271,15.4874444 L48.271,6.82944444 C48.271,6.25844444 47.959,6.10044444 47.153,6.02444444 L46.633,5.97044444 C46.529,5.97044444 46.451,5.94644444 46.451,5.86644444 L46.451,5.26744444 L46.477,5.21544444 C46.477,5.21544444 48.3485165,5.26282461 49.2196655,5.2671319 Z M96.747926,5.2671319 L96.865,5.26744444 C97.567,5.26744444 99.57,5.21544444 99.57,5.21544444 L99.595,5.26744444 L99.595,5.83944444 C99.595,5.91744444 99.542,5.96944444 99.439,5.96944444 L98.893,6.02244444 C98.087,6.09944444 97.801,6.30844444 97.801,6.82944444 L97.803,15.4874444 C97.803,16.0594444 98.063,16.3974444 98.895,16.4754444 L99.441,16.5284444 C99.519,16.5284444 99.597,16.5794444 99.597,16.6834444 L99.597,17.2294444 L99.571,17.2824444 C99.571,17.2824444 97.7705537,17.2341531 96.9067354,17.229763 L96.79,17.2294444 C96.061,17.2294444 94.034,17.2824444 94.034,17.2824444 L93.981,17.2294444 L93.981,16.6834444 C93.981,16.5794444 94.059,16.5284444 94.163,16.5284444 L94.684,16.4754444 C95.541,16.3974444 95.802,15.9814444 95.802,15.4874444 L95.802,6.82944444 C95.802,6.25844444 95.489,6.10044444 94.684,6.02444444 L94.163,5.97044444 C94.059,5.97044444 93.981,5.94644444 93.981,5.86644444 L93.981,5.26744444 L94.007,5.21544444 C94.007,5.21544444 95.8785165,5.26282461 96.747926,5.2671319 Z M110.357,0.119444444 C110.72,0.119444444 110.851,0.380444444 111.058,0.900444444 L116.388,14.9924444 C116.753,16.0074444 117.273,16.3964444 118.313,16.5004444 L118.599,16.5254444 C118.729,16.5254444 118.859,16.6034444 118.859,16.7344444 L118.859,17.2274444 L118.781,17.2794444 C118.781,17.2794444 116.949302,17.2318679 115.902618,17.2277308 L115.765,17.2274444 C114.855,17.2274444 112.306,17.2794444 112.306,17.2794444 L112.281,17.2274444 L112.281,16.7344444 C112.281,16.6034444 112.333,16.5254444 112.465,16.5254444 L113.193,16.4734444 C114.18,16.3964444 114.546,16.0824444 114.285,15.3554444 L112.699,10.9604444 L107.291,10.9604444 C106.667,10.9604444 106.511,11.0644444 106.382,11.4014444 L104.873,15.1724444 C104.613,15.8244444 104.951,16.3974444 105.913,16.4754444 L106.667,16.5284444 C106.771,16.5284444 106.875,16.6064444 106.875,16.7354444 L106.875,17.2294444 L106.823,17.2824444 C106.823,17.2824444 104.211186,17.2335996 103.450165,17.2296921 L103.365,17.2294444 C102.688,17.2294444 101.024,17.2824444 101.024,17.2824444 L100.971,17.2294444 L100.971,16.7354444 C100.971,16.6064444 101.049,16.5284444 101.18,16.5284444 C102.325,16.4504444 102.973,16.2414444 103.701,14.5774444 L109.472,1.05644444 C109.757,0.380444444 109.966,0.119444444 110.357,0.119444444 Z M28.7296655,5.2671319 L28.847,5.26744444 C29.549,5.26744444 31.551,5.21544444 31.551,5.21544444 L31.577,5.26744444 L31.577,5.83944444 C31.577,5.91744444 31.525,5.96944444 31.421,5.96944444 L30.875,6.02244444 C30.069,6.09944444 29.783,6.30844444 29.783,6.82944444 L29.783,15.4874444 C29.783,16.0594444 30.043,16.3974444 30.875,16.4754444 L31.421,16.5284444 C31.499,16.5284444 31.577,16.5794444 31.577,16.6834444 L31.577,17.2294444 L31.551,17.2824444 C31.551,17.2824444 29.7505537,17.2341531 28.8858657,17.229763 L28.769,17.2294444 C28.041,17.2294444 26.013,17.2824444 26.013,17.2824444 L25.961,17.2294444 L25.961,16.6834444 C25.961,16.5794444 26.039,16.5284444 26.143,16.5284444 L26.663,16.4754444 C27.521,16.3974444 27.781,15.9814444 27.781,15.4874444 L27.781,6.82944444 C27.781,6.25844444 27.468,6.10044444 26.663,6.02444444 L26.143,5.97044444 C26.039,5.97044444 25.961,5.94644444 25.961,5.86644444 L25.961,5.26744444 L25.987,5.21544444 C25.987,5.21544444 27.8585165,5.26282461 28.7296655,5.2671319 Z M81.558,5.26844444 C82.05,5.26844444 84.314,5.21644444 84.99,5.21644444 C89.332,5.21644444 91.465,7.92044444 91.465,11.3784444 C91.465,15.9294444 88.24,17.2794444 85.355,17.2794444 C83.3844737,17.2794444 82.464928,17.2327741 81.6882748,17.2278614 L81.56,17.2274444 C80.779,17.2274444 78.803,17.2794444 78.803,17.2794444 L78.777,17.2274444 L78.777,16.6814444 C78.775,16.6064444 78.828,16.5284444 78.931,16.5284444 L79.529,16.4754444 C80.31,16.3974444 80.57,16.1634444 80.57,15.3584444 L80.57,6.77844444 C80.57,6.10044444 80.386,6.10044444 79.529,6.02444444 L78.959,5.97044444 C78.855,5.97044444 78.775,5.91844444 78.775,5.84044444 L78.775,5.26844444 L78.8,5.21644444 C78.8,5.21644444 81.089,5.26844444 81.558,5.26844444 Z M59.909,5.21644444 C63.599,5.21644444 64.275,7.03544444 64.275,8.38944444 C64.275,9.95044444 63.521,12.3934444 59.831,12.3934444 C59.181,12.3934444 58.661,12.3404444 58.192,12.1334444 L58.192,15.6154444 C58.192,16.1874444 58.504,16.3184444 59.337,16.4474444 L59.858,16.5254444 C59.962,16.5514444 60.04,16.5784444 60.04,16.6814444 L60.04,17.2274444 L60.015,17.2794444 C60.015,17.2794444 58.1197934,17.2320643 57.2464908,17.227757 L57.129,17.2274444 C56.401,17.2274444 54.451,17.2794444 54.451,17.2794444 L54.425,17.2274444 L54.425,16.6814444 C54.425,16.5774444 54.477,16.5514444 54.581,16.5254444 L55.127,16.4474444 C55.933,16.3434444 56.193,16.1094444 56.193,15.6154444 L56.191,6.88044444 C56.191,6.07444444 55.853,6.04844444 54.631,5.97044444 C54.475,5.97044444 54.449,5.89344444 54.449,5.84044444 L54.449,5.24244444 L54.501,5.21644444 C54.891,5.21644444 56.425,5.26844444 57.179,5.26844444 C57.907,5.26844444 58.947,5.21644444 59.909,5.21644444 Z M84.236,5.97044444 C83.222,5.97044444 82.572,6.12644444 82.572,6.77844444 L82.572,15.3584444 C82.572,16.0844444 82.753,16.5284444 84.73,16.5284444 C87.589,16.5284444 89.203,15.4634444 89.203,11.8214444 C89.203,9.11844444 88.604,5.97044444 84.236,5.97044444 Z M59.753,5.97144444 C58.504,5.97144444 58.192,6.20544444 58.192,6.88144444 L58.193,11.4054444 C58.713,11.6144444 59.363,11.6394444 59.883,11.6394444 C61.444,11.6394444 62.195,10.7014444 62.195,8.70144444 C62.195,6.46544444 61.181,5.97144444 59.753,5.97144444 Z M109.761,2.92844444 L109.709,2.92844444 L107.109,9.53244444 C107.005,9.79344444 107.186,9.87044444 107.758,9.87044444 L112.283,9.87044444 L112.283,9.86944444 L109.761,2.92844444 Z"/>
	</g>
</svg>

<?xml version="1.0" encoding="UTF-8" standalone="no"?>
<svg xmlns="http://www.w3.org/2000/svg" width="119" height="17" viewBox="0 0 119 17">
	<path d="M10.748 3.61s-.367-.746-.492-.994C9.422.963 9.44.876 8.597.764c-.236-.03-.358-.06-.358-.178V.063l.071-.05C9.833.01 13.222.01 13.222.01l.13.043v.521c0 .12-.085.18-.258.18l-.356.051c-.9.07-.753.438-.155 1.63l5.677 11.614.194.053 5.04-11.96c.175-.483.148-.825-.077-1.026-.226-.196-.385-.312-.969-.336l-.473-.024a.277.277 0 01-.166-.06.172.172 0 01-.079-.145V.053l.072-.05h5.694l.058.05v.498c0 .135-.077.203-.229.203-.746.033-1.299.195-1.657.484-.359.291-.639.692-.84 1.213 0 0-4.635 10.61-6.221 14.135-.607 1.156-1.204 1.05-1.729-.033-1.109-2.284-4.232-9.213-4.232-9.213z"/>
	<path d="M19.844.004s-3.203-.01-4.629 0l-.071.051v.496a.17.17 0 00.078.146.273.273 0 00.165.06l.229.024c.583.024.851.177.931.273.139.17.208.354-.129 1.09l-5.98 11.926-.157-.04S5.998 4.997 4.758 1.976c-.129-.313-.187-.545-.187-.688 0-.307.277-.473.831-.496l.646-.027c.171 0 .258-.066.258-.203V.067l-.058-.05S1.118.01.058.016L0 .066v.521C0 .682.119.74.358.766c.651.035 1.079.14 1.285.312.205.175.422.617.71 1.306C3.91 6.124 7.218 12.798 8.829 16.6c.464 1.038 1.047 1.2 1.755-.032 1.226-2.274 4.55-9.218 4.55-9.218l2.618-4.896c.305-.517.599-.978.748-1.193.273-.393.426-.467 1.172-.502.152 0 .229-.068.229-.205V.057zm9.939 15.483c0 .572.26.91 1.092.988l.546.053c.078 0 .156.051.156.155v.546l-.026.053s-1.976-.053-2.782-.053c-.728 0-2.756.053-2.756.053l-.052-.053v-.546c0-.104.078-.155.182-.155l.52-.053c.858-.078 1.118-.494 1.118-.988V6.83c0-.57-.313-.729-1.118-.805l-.52-.054c-.104 0-.182-.024-.182-.104v-.599l.026-.052s2.054.052 2.86.052c.702 0 2.704-.052 2.704-.052l.026.052v.572c0 .078-.052.13-.156.13l-.546.053c-.806.077-1.092.286-1.092.807z"/>
	<path style="line-height:125%;-inkscape-font-specification:'Linux Libertine O C';text-align:start" d="M39.611 17.477c2.004 0 3.238-.753 4.445-2.388l-.514-.415c-1.181 1.401-2.08 1.92-3.802 1.92-3.109 0-4.034-2.881-4.034-5.45 0-4.362 2.004-5.374 3.931-5.374 2.235 0 3.366 1.246 3.674 3.063l.668-.078c-.154-1.064-.282-2.155-.308-3.323-.976 0-2.133-.415-4.188-.415-3.391 0-6.012 2.596-6.012 6.386 0 2.985 2.184 6.074 6.14 6.074" font-family="Linux Libertine O C" font-size="25.825" font-weight="400"/>
	<path d="M50.273 15.487c0 .572.26.91 1.092.988l.546.053c.078 0 .156.051.156.155v.546l-.026.053s-1.976-.053-2.782-.053c-.728 0-2.756.053-2.756.053l-.052-.053v-.546c0-.104.078-.155.182-.155l.52-.053c.858-.078 1.118-.494 1.118-.988V6.83c0-.57-.312-.729-1.118-.805l-.52-.054c-.104 0-.182-.024-.182-.104v-.599l.026-.052s2.054.052 2.86.052c.702 0 2.704-.052 2.704-.052l.026.052v.572c0 .078-.052.13-.156.13l-.546.053c-.806.077-1.092.286-1.092.807zm5.918-8.607c0-.806-.338-.832-1.56-.91-.156 0-.182-.077-.182-.13v-.598l.052-.026c.39 0 1.924.052 2.678.052.728 0 1.768-.052 2.73-.052 3.69 0 4.366 1.82 4.366 3.173 0 1.561-.754 4.004-4.444 4.004-.65 0-1.17-.053-1.639-.26v3.482c0 .572.312.703 1.145.832l.521.078c.104.026.182.053.182.156v.546l-.025.052s-2.08-.052-2.886-.052c-.728 0-2.678.052-2.678.052l-.026-.052v-.546c0-.104.052-.13.156-.156l.546-.078c.806-.104 1.066-.338 1.066-.832zm2.002 4.525c.52.21 1.17.234 1.69.234 1.561 0 2.312-.938 2.312-2.938 0-2.236-1.014-2.73-2.442-2.73-1.249 0-1.561.234-1.561.91zm20.738 5.123l.598-.053c.781-.078 1.041-.312 1.041-1.117v-8.58c0-.678-.184-.678-1.041-.754l-.57-.054c-.104 0-.184-.052-.184-.13v-.572l.025-.052s2.289.052 2.758.052c.492 0 2.756-.052 3.432-.052 4.342 0 6.475 2.704 6.475 6.162 0 4.551-3.225 5.901-6.11 5.901-2.08 0-2.989-.052-3.795-.052-.781 0-2.757.052-2.757.052l-.026-.052v-.546a.147.147 0 01.154-.153zm5.799 0c2.859 0 4.473-1.065 4.473-4.707 0-2.703-.599-5.85-4.967-5.85-1.014 0-1.664.155-1.664.807v8.58c0 .726.181 1.17 2.158 1.17zm13.073-1.041c0 .572.26.91 1.092.988l.546.053c.078 0 .156.051.156.155v.546l-.026.053s-1.976-.053-2.781-.053c-.729 0-2.756.053-2.756.053l-.053-.053v-.546c0-.104.078-.155.182-.155l.521-.053c.857-.078 1.118-.494 1.118-.988V6.83c0-.57-.313-.729-1.118-.805l-.521-.054c-.104 0-.182-.024-.182-.104v-.599l.026-.052s2.054.052 2.858.052c.702 0 2.705-.052 2.705-.052l.025.052v.572c0 .078-.053.13-.156.13l-.546.053c-.806.077-1.092.286-1.092.807zm8.11.988l.754.053c.104 0 .208.078.208.207v.494l-.052.053s-2.834-.053-3.458-.053c-.677 0-2.341.053-2.341.053l-.053-.053v-.494c0-.129.078-.207.209-.207 1.145-.078 1.793-.287 2.521-1.95l5.771-13.522c.285-.676.494-.937.885-.937.363 0 .494.261.701.781l5.33 14.092c.365 1.015.885 1.404 1.925 1.508l.286.025c.13 0 .26.078.26.21v.492l-.078.052s-2.002-.052-3.016-.052c-.91 0-3.459.052-3.459.052l-.025-.052v-.493c0-.13.052-.209.184-.209l.728-.052c.987-.077 1.353-.39 1.092-1.118l-1.586-4.395h-5.408c-.624 0-.78.104-.909.441l-1.509 3.771c-.26.652.078 1.225 1.04 1.303zm6.37-6.606l-2.522-6.94h-.052l-2.6 6.603c-.104.261.077.338.649.338h4.525zm-43.43 7.361c-.78 0-2.573.052-2.573.052l-.027-.053v-.572c0-.05.027-.129.156-.129l.599-.053c.807-.078 1.041-.598 1.041-1.117v-8.58c0-.6-.313-.703-1.041-.754l-.599-.054c-.156-.024-.156-.077-.156-.104v-.599l.027-.052s2.027.052 2.807.052h3.822c.78 0 2.627-.052 2.627-.052l.053.052c.025 1.118.207 2.134.39 3.121l-.649.104c-.285-.963-.779-2.34-2.443-2.34h-2.08c-.494 0-.754.182-.754.623v3.771h1.949c.729 0 .91-.312 1.015-.832l.155-.546c0-.078.053-.13.156-.13h.441c.053 0 .053.026.053.077-.053.572-.156 1.301-.156 1.925 0 .65.104 1.196.156 1.794l-.053.053h-.441c-.129 0-.183-.053-.183-.13l-.13-.572c-.104-.52-.338-.807-1.016-.807h-1.948v3.98c0 .492.284.986.754.986h2.47c1.326 0 2.055-.832 2.366-2.185l.649.078-.521 2.99-.052.051s-1.534-.052-2.314-.052z"/>
</svg>
